src/components/header/images/bcLogoBig.svg

<svg width="934" height="937" fill="none" xmlns="http://www.w3.org/2000/svg"><path opacity=".3" d="M933.003 406.829h-52.699c-.504 114.848-46.395 223.057-129.856 304.214-83.461 81.402-194.658 126.407-312.916 126.653v132.31h495.219V406.829h.252z" fill="#fff"/><g opacity=".3" fill="#fff"><path d="M437.785 406.829h208.526v-.246c0-111.898-93.042-202.645-207.77-202.645-114.727 0-207.77 90.747-207.77 202.645 0 111.406 92.538 201.908 206.761 202.4V406.829h.253zM880.557 405.354c0-115.587-46.143-224.041-129.857-305.69C666.987 18.016 556.042-26.743 437.785-26.989v44.021c219.369.246 397.637 174.364 397.637 388.322v1.475h44.883c0-.492.252-.983.252-1.475zM437.28 793.676c-219.369 0-398.142-174.117-398.142-388.075H-5.997c0 115.34 46.143 224.041 129.857 305.443 83.713 81.649 194.91 126.654 313.42 126.654h.504v-44.022h-.504z"/><path d="M718.93 406.829c0 150.755-125.822 273.719-280.641 273.719-154.819 0-280.641-122.718-280.641-273.719 0-150.754 125.57-273.473 280.136-273.719V89.089c-86.738 0-168.434 33.2-229.959 92.961-61.524 60.007-95.312 139.688-95.312 224.779 0 85.092 33.788 164.773 95.312 224.78 61.525 60.006 143.221 92.961 230.464 92.961s168.939-32.955 230.463-92.961c61.524-60.007 95.312-139.688 95.312-224.534H718.93v-.246z"/></g></svg>

<svg width="934" height="937" viewBox="0 0 934 937" fill="none" xmlns="http://www.w3.org/2000/svg">
<path opacity="0.3" d="M933.003 406.829H880.304C879.8 521.677 833.909 629.886 750.448 711.043C666.987 792.445 555.79 837.45 437.532 837.696V970.006L932.751 970.006V406.829H933.003Z" fill="white"/>
<g opacity="0.3">
<path d="M437.785 406.829L646.311 406.829V406.583C646.311 294.685 553.269 203.938 438.541 203.938C323.814 203.938 230.771 294.685 230.771 406.583C230.771 517.989 323.309 608.491 437.532 608.983L437.532 406.829H437.785Z" fill="white"/>
<path d="M880.557 405.354C880.557 289.767 834.414 181.313 750.7 99.6641C666.987 18.0157 556.042 -26.7433 437.785 -26.9893V17.032C657.154 17.278 835.422 191.396 835.422 405.354C835.422 405.846 835.422 406.337 835.422 406.829H880.305C880.305 406.337 880.557 405.846 880.557 405.354Z" fill="white"/>
<path d="M437.28 793.676C217.911 793.676 39.1377 619.559 39.1377 405.601H-5.99683C-5.99683 520.941 40.1463 629.642 123.86 711.044C207.573 792.693 318.77 837.698 437.28 837.698C437.532 837.698 437.784 837.698 437.784 837.698V793.676C437.532 793.676 437.28 793.676 437.28 793.676Z" fill="white"/>
<path d="M718.93 406.829C718.93 557.584 593.108 680.548 438.289 680.548C283.47 680.548 157.648 557.83 157.648 406.829C157.648 256.075 283.218 133.356 437.784 133.11V89.0889C351.046 89.0889 269.35 122.289 207.825 182.05C146.301 242.057 112.513 321.738 112.513 406.829C112.513 491.921 146.301 571.602 207.825 631.609C269.35 691.615 351.046 724.57 438.289 724.57C525.532 724.57 607.228 691.615 668.752 631.609C730.276 571.602 764.064 491.921 764.064 407.075H718.93V406.829Z" fill="white"/>
</g>
</svg>
